flaticon/constructions/gas-pipe-7.svg

<svg xmlns="http://www.w3.org/2000/svg" width="32" height="32" viewBox="0 0 24 24">
    <path d="M 23.601562 16.800781 L 18.800781 16.800781 L 18.800781 14.398438 L 23.601562 14.398438 C 23.839844 14.398438 24 14.238281 24 14 C 24 13.761719 23.839844 13.601562 23.601562 13.601562 L 18.800781 13.601562 L 18.800781 12.398438 C 18.800781 12.160156 18.640625 12 18.398438 12 L 14.761719 12 L 14.761719 10.019531 C 16.664062 9.25 18 7.386719 18 5.199219 C 18 2.320312 15.679688 0 12.800781 0 C 9.921875 0 7.601562 2.320312 7.601562 5.199219 C 7.601562 7.371094 8.917969 9.222656 10.800781 10.003906 L 10.800781 12 L 7.199219 12 C 6.960938 12 6.800781 12.160156 6.800781 12.398438 L 6.800781 13.609375 C 3.023438 13.816406 0 16.933594 0 20.71875 L 0 23.601562 C 0 23.839844 0.160156 24 0.398438 24 C 0.640625 24 0.800781 23.839844 0.800781 23.601562 L 0.800781 20.71875 C 0.800781 17.359375 3.480469 14.601562 6.800781 14.398438 L 6.800781 16.71875 C 4.800781 16.960938 3.199219 18.640625 3.199219 20.71875 L 3.199219 23.601562 C 3.199219 23.839844 3.359375 24 3.601562 24 C 3.839844 24 4 23.839844 4 23.601562 L 4 20.71875 C 4 19.09375 5.226562 17.746094 6.800781 17.546875 L 6.800781 18.800781 C 6.800781 19.039062 6.960938 19.199219 7.199219 19.199219 L 18.398438 19.199219 C 18.640625 19.199219 18.800781 19.039062 18.800781 18.800781 L 18.800781 17.601562 L 23.601562 17.601562 C 23.839844 17.601562 24 17.441406 24 17.199219 C 24 16.960938 23.839844 16.800781 23.601562 16.800781 Z M 8.417969 5.601562 L 8.800781 5.601562 C 9.039062 5.601562 9.199219 5.441406 9.199219 5.199219 C 9.199219 4.960938 9.039062 4.800781 8.800781 4.800781 L 8.417969 4.800781 C 8.609375 2.683594 10.3125 1.011719 12.398438 0.820312 L 12.398438 1.199219 C 12.398438 1.441406 12.558594 1.601562 12.800781 1.601562 C 13.039062 1.601562 13.199219 1.441406 13.199219 1.199219 L 13.199219 0.816406 C 15.320312 1.007812 16.992188 2.679688 17.183594 4.800781 L 16.800781 4.800781 C 16.558594 4.800781 16.398438 4.960938 16.398438 5.199219 C 16.398438 5.441406 16.558594 5.601562 16.800781 5.601562 L 17.179688 5.601562 C 17.011719 7.457031 15.683594 8.96875 13.953125 9.445312 C 13.929688 9.449219 13.90625 9.457031 13.882812 9.464844 C 13.878906 9.464844 13.875 9.464844 13.871094 9.464844 C 13.648438 9.519531 13.425781 9.558594 13.199219 9.578125 L 13.199219 9.199219 C 13.199219 8.960938 13.039062 8.800781 12.800781 8.800781 C 12.558594 8.800781 12.398438 8.960938 12.398438 9.199219 L 12.398438 9.582031 C 10.3125 9.390625 8.609375 7.71875 8.417969 5.601562 Z M 11.601562 10.261719 C 11.984375 10.351562 12.386719 10.398438 12.800781 10.398438 C 13.214844 10.398438 13.613281 10.351562 14 10.261719 L 14 12 L 11.601562 12 Z M 18 18.398438 L 7.601562 18.398438 L 7.601562 12.800781 L 18 12.800781 Z M 18 18.398438"/>
    <path d="M16 14L9.601562 14C9.359375 14 9.199219 14.160156 9.199219 14.398438L9.199219 16.800781C9.199219 17.039062 9.359375 17.199219 9.601562 17.199219L16 17.199219C16.238281 17.199219 16.398438 17.039062 16.398438 16.800781L16.398438 14.398438C16.398438 14.160156 16.238281 14 16 14zM15.601562 16.398438L10 16.398438 10 14.800781 15.601562 14.800781zM13.761719 6.359375C13.878906 6.320312 13.960938 6.238281 14 6.121094L14.800781 3.71875C14.839844 3.601562 14.800781 3.441406 14.679688 3.320312 14.601562 3.238281 14.441406 3.199219 14.28125 3.238281L11.878906 4.039062C11.761719 4.078125 11.679688 4.160156 11.640625 4.28125L10.839844 6.679688C10.761719 6.800781 10.800781 6.960938 10.921875 7.078125 11 7.160156 11.078125 7.199219 11.199219 7.199219 11.238281 7.199219 11.28125 7.199219 11.359375 7.160156zM12.320312 4.71875L13.761719 4.238281 13.28125 5.679688 11.839844 6.160156zM12.320312 4.71875"/>
</svg>

<svg xmlns="http://www.w3.org/2000/svg" width="32" height="32" viewBox="0 0 24 24">
    <path d="M23.602 16.8H18.8v-2.402h4.8c.239 0 .399-.16.399-.398 0-.238-.16-.398-.398-.398H18.8v-1.204c0-.238-.16-.398-.403-.398h-3.636v-1.98A5.187 5.187 0 0 0 18 5.2 5.19 5.19 0 0 0 12.8 0a5.19 5.19 0 0 0-5.198 5.2 5.188 5.188 0 0 0 3.199 4.804V12H7.199c-.238 0-.398.16-.398.398v1.211C3.023 13.816 0 16.934 0 20.72v2.883c0 .238.16.398.398.398.243 0 .403-.16.403-.398v-2.883c0-3.36 2.68-6.117 6-6.32v2.32c-2 .242-3.602 1.922-3.602 4v2.883c0 .238.16.398.403.398.238 0 .398-.16.398-.398v-2.883a3.208 3.208 0 0 1 2.8-3.172V18.8c0 .238.16.398.4.398h11.198c.243 0 .403-.16.403-.398v-1.2h4.8c.239 0 .399-.16.399-.402 0-.238-.16-.398-.398-.398zM8.418 5.603h.383c.238 0 .398-.16.398-.403 0-.238-.16-.398-.398-.398h-.383c.191-2.117 1.895-3.79 3.98-3.98v.378c0 .242.16.403.403.403.238 0 .398-.16.398-.403V.816a4.39 4.39 0 0 1 3.985 3.985H16.8c-.242 0-.403.16-.403.398 0 .242.16.403.403.403h.379c-.168 1.855-1.496 3.367-3.227 3.843a.472.472 0 0 0-.07.02h-.012a4.388 4.388 0 0 1-.672.113V9.2c0-.238-.16-.398-.398-.398-.242 0-.403.16-.403.398v.383c-2.085-.191-3.789-1.863-3.98-3.98zm3.184 4.66c.382.09.785.136 1.199.136.414 0 .812-.046 1.199-.136V12h-2.398zM18 18.398H7.602v-5.597H18zm0 0"/>
    <path d="M16 14H9.602c-.243 0-.403.16-.403.398v2.403c0 .238.16.398.403.398H16c.238 0 .398-.16.398-.398v-2.403c0-.238-.16-.398-.398-.398zm-.398 2.398H10v-1.597h5.602zm0 0M13.762 6.36c.117-.04.199-.122.238-.239l.8-2.402c.04-.117 0-.278-.12-.399-.078-.082-.239-.12-.399-.082l-2.402.801a.361.361 0 0 0-.238.242L10.84 6.68c-.078.12-.04.28.082.398a.348.348 0 0 0 .277.121c.04 0 .082 0 .16-.039zM12.32 4.718l1.442-.48-.48 1.44-1.442.481zm0 0"/>
</svg>
